X: 18088
T: Humours Of Ballydehob, The
R: jig
M: 6/8
K: Gmajor
|:A|B2 G AGE|DGG AGE|D2 G A^GA|B/c/dG edc|
B2 G AGE|DGG AGE|D2 G A^GA|BGF G2:|
|:c|Bdd Acc|Bdd BGE|D2 G A^GA|BA^G AA/B/c|
B2 d Acc|B2 d BGE|D2 G A^GA|BGF G2:|

